!!!OTL: O Can You Sew Cushions 
!!!id: HA048
**kern
*clefF4
*k[]
*G:
{4g
=1
4.a
8b
4dd
=2
4b
4g
4g
=3
4.a
8b
4dd
=4
2b}
{4g
=5
4a
8b
8cc
8dd
8cc
=6
8b
8a
4g
4a
=7
4.cc
8dd
4a
=8
2g}
{4g
=9
4.a
8b
4gg
=10
4b
4g
4g
=11
4.a
8b
4gg
=12
2ee}
{4ee
=13
4dd
4cc
4b
=14
4a
4g
4a
=15
4.b
8cc
4a
=16
2g}
4r
=17yy
{4b
4g
4d
=18yy
4g
=19
*M4/4
8a
8b
8a
8b
4a
4g}
=20yy
{4.b
8g
4d
4g
=21
4a
8a
8b
2g}
=22yy
{4b
4g
4d
4g
=23
8a
8b
8a
8b
4a
4g}
=24yy
{4b
4g
4d
4g
=25
2.b
4g
=26
4a
8a
8b
2g}
==
*-
!!!minrhy: 8
!!!meters: 3/4 4/4 
!!!cut: O Can You Sew Cushions 
!!!key: HA048  08  G 3/4 4/4 
!!!fog: a--b--aw-c--d--e--d--ew-
!! Haydn: Volksliedbearbeitungen, Bd1
